img/benefit-icon2.svg

<svg height="157" viewBox="0 0 157 157" width="157" xmlns="http://www.w3.org/2000/svg" fill="#0A0A0A"><path d="m78.7899056 156.6c-43.0782105 0-78.00000014-35.011333-78.00000014-78.2 0-43.1886674 34.92178964-78.2 78.00000014-78.2 43.0782104 0 77.9999994 35.0113326 77.9999994 78.2 0 43.188667-34.921789 78.2-77.9999994 78.2zm0-2c41.9764664 0 76.0051154-34.115902 76.0051154-76.2 0-42.0840979-34.028649-76.2-76.0051154-76.2-41.9764661 0-76.00511522 34.1159021-76.00511522 76.2 0 42.084098 34.02864912 76.2 76.00511522 76.2z"/><path d="m66.6148767 114.640958.0668321-10.694417c-5.2313971-.534276-9.3148245-5.0074464-9.3148245-10.446541 0-2.238851.691866-4.314043 1.8708727-6.0182343l-10.9499577-9.4490406c-1.4689983.8081989-3.1524326 1.2672749-4.941737 1.2672749-5.7258172 0-10.3675092-4.7010101-10.3675092-10.5 0-5.4617059 4.1174491-9.9494403 9.3801274-10.453v-10.594c-5.2626783-.5035597-9.3801274-4.9912941-9.3801274-10.453 0-5.7989899 4.641692-10.5 10.3675092-10.5 5.7258173 0 10.3675092 4.7010101 10.3675092 10.5 0 5.4617059-4.1174491 9.9494403-9.3801273 10.453v10.594c5.2626782.5035597 9.3801273 4.9912941 9.3801273 10.453 0 3.242294-1.4510299 6.1413507-3.7312865 8.0674204l10.5368792 9.0925829c1.8663016-1.8322106 4.4107223-2.9600033 7.2152293-2.9600033 2.537292 0 4.8616989.9231178 6.6636555 2.4558323l10.0709336-10.0369743c-1.4498155-1.8061498-2.3188144-4.1097242-2.3188144-6.618858 0-5.7989899 4.641692-10.5 10.3675092-10.5 2.4621007 0 4.7237466.8692162 6.5020868 2.3211827l9.6748178-10.0394015c-1.529798-1.8295597-2.452297-4.1965631-2.452297-6.7817812 0-5.7989899 4.641692-10.5 10.367509-10.5s10.367509 4.7010101 10.367509 10.5-4.641692 10.5-10.367509 10.5c-2.462122 0-4.723787-.8692315-6.502134-2.3212211l-9.674861 10.0393307c1.529852 1.8295746 2.452387 4.1966208 2.452387 6.7818904 0 2.562442-.906315 4.9104974-2.412005 6.7333003l9.585933 9.8278017c1.785648-1.4759397 4.066098-2.361102 6.55068-2.361102 5.725817 0 10.367509 4.7010101 10.367509 10.5s-4.641692 10.5-10.367509 10.5-10.367509-4.7010101-10.367509-10.5c0-2.562442.906316-4.9104974 2.412004-6.7333003l-9.5859318-9.8278017c-1.7856477 1.4759397-4.0660977 2.361102-6.5506798 2.361102-2.5372704 0-4.8616594-.9231021-6.6636095-2.4557932l-10.07089 10.0370468c1.4497616 1.8061332 2.3187249 4.1096643 2.3187249 6.6187464 0 5.4842898-4.1515705 9.986537-9.4454688 10.459042l-.0668321 10.694417c5.2313971.534276 9.3148245 5.007446 9.3148245 10.446541 0 5.79899-4.641692 10.5-10.3675092 10.5-5.7258173 0-10.3675093-4.70101-10.3675093-10.5 0-5.48429 4.1515705-9.986537 9.4454688-10.459042zm-23.2688144-68.840958c4.6351855 0 8.3927456-3.8055796 8.3927456-8.5s-3.7575601-8.5-8.3927456-8.5c-4.6351854 0-8.3927455 3.8055796-8.3927455 8.5s3.7575601 8.5 8.3927455 8.5zm0 31.5c4.6351855 0 8.3927456-3.8055796 8.3927456-8.5s-3.7575601-8.5-8.3927456-8.5c-4.6351854 0-8.3927455 3.8055796-8.3927455 8.5s3.7575601 8.5 8.3927455 8.5zm24.3883312 24.7c4.6351855 0 8.3927456-3.8055796 8.3927456-8.5s-3.7575601-8.5-8.3927456-8.5c-4.6351854 0-8.3927455 3.8055796-8.3927455 8.5s3.7575601 8.5 8.3927455 8.5zm24.7832839-24.7c4.6351855 0 8.3927456-3.8055796 8.3927456-8.5s-3.7575601-8.5-8.3927456-8.5c-4.6351854 0-8.3927455 3.8055796-8.3927455 8.5s3.7575601 8.5 8.3927455 8.5zm24.0921166-25c4.635185 0 8.392745-3.8055796 8.392745-8.5s-3.75756-8.5-8.392745-8.5-8.392746 3.8055796-8.392746 8.5 3.757561 8.5 8.392746 8.5zm0 49.7c4.635185 0 8.392745-3.8055796 8.392745-8.5s-3.75756-8.5-8.392745-8.5-8.392746 3.8055796-8.392746 8.5 3.757561 8.5 8.392746 8.5zm-49.0728768 31.6c4.6351854 0 8.3927455-3.80558 8.3927455-8.5s-3.7575601-8.5-8.3927455-8.5c-4.6351855 0-8.3927456 3.80558-8.3927456 8.5s3.7575601 8.5 8.3927456 8.5z"/></svg>

<svg xmlns="http://www.w3.org/2000/svg" width="157" height="157" viewBox="0 0 157 157"><g fill="#000000"><path d="M78.7899056,156.6 C35.7116951,156.6 0.789905464,121.588667 0.789905464,78.4 C0.789905464,35.2113326 35.7116951,0.2 78.7899056,0.2 C121.868116,0.2 156.789905,35.2113326 156.789905,78.4 C156.789905,121.588667 121.868116,156.6 78.7899056,156.6 Z M78.7899056,154.6 C120.766372,154.6 154.795021,120.484098 154.795021,78.4 C154.795021,36.3159021 120.766372,2.2 78.7899056,2.2 C36.8134395,2.2 2.78479038,36.3159021 2.78479038,78.4 C2.78479038,120.484098 36.8134395,154.6 78.7899056,154.6 Z"/><path d="M66.6148767,114.640958 L66.6817088,103.946541 C61.4503117,103.412265 57.3668843,98.9390946 57.3668843,93.5 C57.3668843,91.261149 58.0587503,89.185957 59.237757,87.4817657 L48.2877993,78.0327251 C46.818801,78.840924 45.1353667,79.3 43.3460623,79.3 C37.6202451,79.3 32.9785531,74.5989899 32.9785531,68.8 C32.9785531,63.3382941 37.0960022,58.8505597 42.3586805,58.347 L42.3586805,47.753 C37.0960022,47.2494403 32.9785531,42.7617059 32.9785531,37.3 C32.9785531,31.5010101 37.6202451,26.8 43.3460623,26.8 C49.0718796,26.8 53.7135715,31.5010101 53.7135715,37.3 C53.7135715,42.7617059 49.5961224,47.2494403 44.3334442,47.753 L44.3334442,58.347 C49.5961224,58.8505597 53.7135715,63.3382941 53.7135715,68.8 C53.7135715,72.042294 52.2625416,74.9413507 49.982285,76.8674204 L60.5191642,85.9600033 C62.3854658,84.1277927 64.9298865,83 67.7343935,83 C70.2716855,83 72.5960924,83.9231178 74.398049,85.4558323 L84.4689826,75.418858 C83.0191671,73.6127082 82.1501682,71.3091338 82.1501682,68.8 C82.1501682,63.0010101 86.7918602,58.3 92.5176774,58.3 C94.9797781,58.3 97.241424,59.1692162 99.0197642,60.6211827 L108.694582,50.5817812 C107.164784,48.7522215 106.242285,46.3852181 106.242285,43.8 C106.242285,38.0010101 110.883977,33.3 116.609794,33.3 C122.335611,33.3 126.977303,38.0010101 126.977303,43.8 C126.977303,49.5989899 122.335611,54.3 116.609794,54.3 C114.147672,54.3 111.886007,53.4307685 110.10766,51.9787789 L100.432799,62.0181096 C101.962651,63.8476842 102.885186,66.2147304 102.885186,68.8 C102.885186,71.362442 101.978871,73.7104974 100.473181,75.5333003 L110.059114,85.361102 C111.844762,83.8851623 114.125212,83 116.609794,83 C122.335611,83 126.977303,87.7010101 126.977303,93.5 C126.977303,99.2989899 122.335611,104 116.609794,104 C110.883977,104 106.242285,99.2989899 106.242285,93.5 C106.242285,90.937558 107.148601,88.5895026 108.654289,86.7666997 L99.0683572,76.938898 C97.2827095,78.4148377 95.0022595,79.3 92.5176774,79.3 C89.980407,79.3 87.656018,78.3768979 85.8540679,76.8442068 L75.7831779,86.8812536 C77.2329395,88.6873868 78.1019028,90.9909179 78.1019028,93.5 C78.1019028,98.9842898 73.9503323,103.486537 68.656434,103.959042 L68.5896019,114.653459 C73.820999,115.187735 77.9044264,119.660905 77.9044264,125.1 C77.9044264,130.89899 73.2627344,135.6 67.5369172,135.6 C61.8110999,135.6 57.1694079,130.89899 57.1694079,125.1 C57.1694079,119.61571 61.3209784,115.113463 66.6148767,114.640958 Z M43.3460623,45.8 C47.9812478,45.8 51.7388079,41.9944204 51.7388079,37.3 C51.7388079,32.6055796 47.9812478,28.8 43.3460623,28.8 C38.7108769,28.8 34.9533168,32.6055796 34.9533168,37.3 C34.9533168,41.9944204 38.7108769,45.8 43.3460623,45.8 Z M43.3460623,77.3 C47.9812478,77.3 51.7388079,73.4944204 51.7388079,68.8 C51.7388079,64.1055796 47.9812478,60.3 43.3460623,60.3 C38.7108769,60.3 34.9533168,64.1055796 34.9533168,68.8 C34.9533168,73.4944204 38.7108769,77.3 43.3460623,77.3 Z M67.7343935,102 C72.369579,102 76.1271391,98.1944204 76.1271391,93.5 C76.1271391,88.8055796 72.369579,85 67.7343935,85 C63.0992081,85 59.341648,88.8055796 59.341648,93.5 C59.341648,98.1944204 63.0992081,102 67.7343935,102 Z M92.5176774,77.3 C97.1528629,77.3 100.910423,73.4944204 100.910423,68.8 C100.910423,64.1055796 97.1528629,60.3 92.5176774,60.3 C87.882492,60.3 84.1249319,64.1055796 84.1249319,68.8 C84.1249319,73.4944204 87.882492,77.3 92.5176774,77.3 Z M116.609794,52.3 C121.244979,52.3 125.002539,48.4944204 125.002539,43.8 C125.002539,39.1055796 121.244979,35.3 116.609794,35.3 C111.974609,35.3 108.217048,39.1055796 108.217048,43.8 C108.217048,48.4944204 111.974609,52.3 116.609794,52.3 Z M116.609794,102 C121.244979,102 125.002539,98.1944204 125.002539,93.5 C125.002539,88.8055796 121.244979,85 116.609794,85 C111.974609,85 108.217048,88.8055796 108.217048,93.5 C108.217048,98.1944204 111.974609,102 116.609794,102 Z M67.5369172,133.6 C72.1721026,133.6 75.9296627,129.79442 75.9296627,125.1 C75.9296627,120.40558 72.1721026,116.6 67.5369172,116.6 C62.9017317,116.6 59.1441716,120.40558 59.1441716,125.1 C59.1441716,129.79442 62.9017317,133.6 67.5369172,133.6 Z"/></g></svg>
